console-client/ionicons/svg/medkit-sharp.svg

<svg xmlns="http://www.w3.org/2000/svg" class="ionicon" viewBox="0 0 512 512"><title>Medkit</title><path d="M168 72h176v24H168z" class="ionicon-fill-none"/><path d="M484 96H384V40a8 8 0 00-8-8H136a8 8 0 00-8 8v56H28a12 12 0 00-12 12v360a12 12 0 0012 12h456a12 12 0 0012-12V108a12 12 0 00-12-12zM168 72h176v24H168zm184 238h-74v74h-44v-74h-74v-44h74v-74h44v74h74z"/></svg>

<svg xmlns="http://www.w3.org/2000/svg" width="512" height="512" viewBox="0 0 512 512"><title>ionicons-v5-n</title><rect x="168" y="72" width="176" height="24" style="fill:none"/><path d="M484,96H384V40a8,8,0,0,0-8-8H136a8,8,0,0,0-8,8V96H28a12,12,0,0,0-12,12V468a12,12,0,0,0,12,12H484a12,12,0,0,0,12-12V108A12,12,0,0,0,484,96ZM168,72H344V96H168ZM352,310H278v74H234V310H160V266h74V192h44v74h74Z"/></svg>
